X:1
T:In The Days When We Went Gypsying
T:In The Days When We Went Gypsying
T:Nathan James Sporle (1812-1853)
C:Nathan James Sporle (1812-1853)
L:1/8
M:2/4
K:C
V:1 treble 
V:1
 G>G | c>c c>c | d>c B>A | G2 F>G | E3 D | C>D E>F | G>A B>c | d>c A>B | G3 G | A>^G A>B | %10
 c>G G>G | F>G E>F | D3 G | c>c cc | c<c c>A | G<c e>d | c3 G | G>F E>F | A<G GG | A>B cd | %20
 !fermata!B2 G>G | c>c cc | c>c cG | c2 c>d | e2 e>e | f>e dd | e>c cA | G2 !fermata!e>d | c2 z2 || %29

